X: 80
T:Donald Ian Rankine
% Nottingham Music Database
S:Trad, arr Phil Rowe
M:6/8
K:G
"D7"d2c |"G"Bdd GBB|DGG B,DD|"G"B,DD GBB|"D"GFF F3|
"D"DFF FAA|"D"Acc cdd|dff fdd|"G"cBB B3|
"G"Bdd GBB|DGG B,DD|"G"B,DD GBB|"D"GFF F3|
"D"DFF FAA|"D"Acc cdd|dff fef|"G"agg g3||
"G"bgg dgg|bgg edd|"G"bgg dgg|"D"gff f3|
aff dff|"D"aff fed|aff dff|"G"edd "D"d3|
"G"bgg dgg|bgg edd|"G"bgg dgg|"C"gee e3|
ecc Gcc|"G"DGG Bdd|"D"dff fef|"G"agg g3||<end>
<start>
